Numix-Circle/48x48/apps/WoW.svg

<svg viewBox="0 0 48 48"><defs><linearGradient id="linearGradient3764" y1="47" x2="0" y2="1" gradientUnits="userSpaceOnUse"><stop stop-color="#d6971e" stop-opacity="1"/><stop offset="1" stop-color="#e1a126" stop-opacity="1"/></linearGradient><clipPath id="clipPath-811116545"><g transform="translate(0,-1004.3622)"><path d="m -24 13 c 0 1.105 -0.672 2 -1.5 2 -0.828 0 -1.5 -0.895 -1.5 -2 0 -1.105 0.672 -2 1.5 -2 0.828 0 1.5 0.895 1.5 2 z" transform="matrix(15.333333,0,0,11.5,414.99999,878.8622)" fill="#1890d0"/></g></clipPath><clipPath id="clipPath-830670451"><g transform="translate(0,-1004.3622)"><path d="m -24 13 c 0 1.105 -0.672 2 -1.5 2 -0.828 0 -1.5 -0.895 -1.5 -2 0 -1.105 0.672 -2 1.5 -2 0.828 0 1.5 0.895 1.5 2 z" transform="matrix(15.333333,0,0,11.5,414.99999,878.8622)" fill="#1890d0"/></g></clipPath></defs><g><path d="m 36.31 5 c 5.859 4.062 9.688 10.831 9.688 18.5 c 0 12.426 -10.07 22.5 -22.5 22.5 c -7.669 0 -14.438 -3.828 -18.5 -9.688 c 1.037 1.822 2.306 3.499 3.781 4.969 c 4.085 3.712 9.514 5.969 15.469 5.969 c 12.703 0 23 -10.298 23 -23 c 0 -5.954 -2.256 -11.384 -5.969 -15.469 c -1.469 -1.475 -3.147 -2.744 -4.969 -3.781 z m 4.969 3.781 c 3.854 4.113 6.219 9.637 6.219 15.719 c 0 12.703 -10.297 23 -23 23 c -6.081 0 -11.606 -2.364 -15.719 -6.219 c 4.16 4.144 9.883 6.719 16.219 6.719 c 12.703 0 23 -10.298 23 -23 c 0 -6.335 -2.575 -12.06 -6.719 -16.219 z" opacity="0.05"/><path d="m 41.28 8.781 c 3.712 4.085 5.969 9.514 5.969 15.469 c 0 12.703 -10.297 23 -23 23 c -5.954 0 -11.384 -2.256 -15.469 -5.969 c 4.113 3.854 9.637 6.219 15.719 6.219 c 12.703 0 23 -10.298 23 -23 c 0 -6.081 -2.364 -11.606 -6.219 -15.719 z" opacity="0.1"/><path d="m 31.25 2.375 c 8.615 3.154 14.75 11.417 14.75 21.13 c 0 12.426 -10.07 22.5 -22.5 22.5 c -9.708 0 -17.971 -6.135 -21.12 -14.75 a 23 23 0 0 0 44.875 -7 a 23 23 0 0 0 -16 -21.875 z" opacity="0.2"/></g><g><path d="m 24 1 c 12.703 0 23 10.297 23 23 c 0 12.703 -10.297 23 -23 23 -12.703 0 -23 -10.297 -23 -23 0 -12.703 10.297 -23 23 -23 z" fill="url(#linearGradient3764)" fill-opacity="1"/></g><g/><g><g clip-path="url(#clipPath-811116545)"><g transform="translate(1,1)"><g opacity="0.1"><!-- color: #e1a126 --><g><path d="m 48 48 l -48 0 c 0 0 18.551 -18.418 24.05 -23.902 c 22.273 22.23 23.953 23.902 23.953 23.902 m 0 0" stroke="none" fill-rule="nonzero" fill-opacity="1" fill="#000"/><path d="m 48 0 l -48 0 c 0 0 18.738 18.426 24.23 23.91 c 22.273 -22.23 23.766 -23.91 23.766 -23.91 m 0 0" stroke="none" fill-rule="nonzero" fill-opacity="1" fill="#000"/><path d="m 39 24 c 0 8.285 -6.715 15 -15 15 c -8.285 0 -15 -6.715 -15 -15 c 0 -8.285 6.715 -15 15 -15 c 8.285 0 15 6.715 15 15 m 0 0" stroke="none" fill-rule="nonzero" fill-opacity="1" fill="#000"/><path d="m 36.496 23.977 c 0 6.875 -5.574 12.445 -12.449 12.445 c -6.871 0 -12.445 -5.57 -12.445 -12.445 c 0 -6.875 5.574 -12.445 12.445 -12.445 c 6.875 0 12.449 5.57 12.449 12.445 m 0 0" stroke="none" fill-rule="nonzero" fill-opacity="1" fill="#000"/><path d="m 16 18 c -2 -2 8.672 -0.242 2 0 l 1.605 13.508 l -1.605 1.492 c 1.656 -0.004 3.34 0.031 5 0 c -0.449 -1.078 -0.902 -1.434 -1 -2 l 2 -5 l 1.352 5.66 l -0.188 1.215 c 1.813 -0.012 3.277 0.133 4.836 0.125 c -0.395 -0.398 -0.789 -1.098 -1.133 -1.555 l 2.371 -12.859 l 0.762 -1.586 l -4 0 c 0.41 0.145 0.699 0.699 1 1 l -3 11 c -1.082 -4.379 -2.047 -10.988 -2 -12 l -2.188 10.871 l -2.082 -9.184 c -0.188 -0.746 1.27 -2.688 0.27 -0.688 m -4 0" stroke="none" fill-rule="nonzero" fill-opacity="1" fill="#000"/><path d="m 15 17 l 3 1 l 2.75 13.727 l -2.75 1.273 l 1 -2 l -3 -12 m -1 -2" stroke="none" fill-rule="nonzero" fill-opacity="1" fill="#000"/><path d="m 20.699 31.699 l 0.801 0 l 1.5 1.301 l -5 0 m 2.699 -1.301" stroke="none" fill-rule="nonzero" fill-opacity="1" fill="#000"/><path d="m 21.5 31.699 l 0.5 -4.699 l -2 -8 l 1 -2 l -3 1 l 2.699 13.699 m 0.801 0" stroke="none" fill-rule="nonzero" fill-opacity="1" fill="#000"/><path d="m 24 17 l -2 10 l -0.5 4.699 l 2.801 -10.922 m -0.301 -3.777" stroke="none" fill-rule="nonzero" fill-opacity="1" fill="#000"/><path d="m 24 17 l 2 10 l 0.5 4.699 l -2.504 -10.699 m 0.004 -4" stroke="none" fill-rule="nonzero" fill-opacity="1" fill="#000"/><path d="m 23 33 l -1.5 -1.301 l 2.5 -10.699 l 0 5 l -1.301 5.699 m 0.301 1.301" stroke="none" fill-rule="nonzero" fill-opacity="1" fill="#000"/><path d="m 33 17 l -3 1 l -2.699 13.699 l 2.699 1.301 l -1 -2 l 3 -12 m 1 -2" stroke="none" fill-rule="nonzero" fill-opacity="1" fill="#000"/><path d="m 27.301 31.699 l -0.801 0 l -1.5 1.301 l 5 0 m -2.699 -1.301" stroke="none" fill-rule="nonzero" fill-opacity="1" fill="#000"/><path d="m 26.5 31.699 l -0.5 -4.699 l 2 -8 l -1 -2 l 3 1 l -2.699 13.699 m -0.801 0" stroke="none" fill-rule="nonzero" fill-opacity="1" fill="#000"/><path d="m 25 33 l 1.5 -1.301 l -2.5 -10.699 l 0 5 l 1.301 5.699 m -0.301 1.301" stroke="none" fill-rule="nonzero" fill-opacity="1" fill="#000"/><path d="m 18 18 l 3 -1 l -6 0 m 3 1" stroke="none" fill-rule="nonzero" fill-opacity="1" fill="#000"/><path d="m 30 18 l -3 -1 l 6 0 m -3 1" stroke="none" fill-rule="nonzero" fill-opacity="1" fill="#000"/></g></g></g></g></g><g><g clip-path="url(#clipPath-830670451)"><!-- color: #e1a126 --><g><path d="m 48 48 l -48 0 c 0 0 18.551 -18.418 24.05 -23.902 c 22.273 22.23 23.953 23.902 23.953 23.902 m 0 0" fill="#e8c55b" stroke="none" fill-rule="nonzero" fill-opacity="1"/><path d="m 48 0 l -48 0 c 0 0 18.738 18.426 24.23 23.91 c 22.273 -22.23 23.766 -23.91 23.766 -23.91 m 0 0" fill="#fffaa3" stroke="none" fill-rule="nonzero" fill-opacity="1"/><path d="m 39 24 c 0 8.285 -6.715 15 -15 15 c -8.285 0 -15 -6.715 -15 -15 c 0 -8.285 6.715 -15 15 -15 c 8.285 0 15 6.715 15 15 m 0 0" fill="#d5a426" stroke="none" fill-rule="nonzero" fill-opacity="1"/><path d="m 36.496 23.977 c 0 6.875 -5.574 12.445 -12.449 12.445 c -6.871 0 -12.445 -5.57 -12.445 -12.445 c 0 -6.875 5.574 -12.445 12.445 -12.445 c 6.875 0 12.449 5.57 12.449 12.445 m 0 0" fill="#2d2d2d" stroke="none" fill-rule="nonzero" fill-opacity="1"/><path d="m 16 18 c -2 -2 8.672 -0.242 2 0 l 1.605 13.508 l -1.605 1.492 c 1.656 -0.004 3.34 0.031 5 0 c -0.449 -1.078 -0.902 -1.434 -1 -2 l 2 -5 l 1.352 5.66 l -0.188 1.215 c 1.813 -0.012 3.277 0.133 4.836 0.125 c -0.395 -0.398 -0.789 -1.098 -1.133 -1.555 l 2.371 -12.859 l 0.762 -1.586 l -4 0 c 0.41 0.145 0.699 0.699 1 1 l -3 11 c -1.082 -4.379 -2.047 -10.988 -2 -12 l -2.188 10.871 l -2.082 -9.184 c -0.188 -0.746 1.27 -2.688 0.27 -0.688 m -4 0" fill="#d5a426" stroke="none" fill-rule="nonzero" fill-opacity="1"/><path d="m 15 17 l 3 1 l 2.75 13.727 l -2.75 1.273 l 1 -2 l -3 -12 m -1 -2" fill="#f9df5b" stroke="none" fill-rule="nonzero" fill-opacity="1"/><path d="m 20.699 31.699 l 0.801 0 l 1.5 1.301 l -5 0 m 2.699 -1.301" fill="#a54c1b" stroke="none" fill-rule="nonzero" fill-opacity="1"/><path d="m 21.5 31.699 l 0.5 -4.699 l -2 -8 l 1 -2 l -3 1 l 2.699 13.699 m 0.801 0" fill="#d59326" stroke="none" fill-rule="nonzero" fill-opacity="1"/><path d="m 24 17 l -2 10 l -0.5 4.699 l 2.801 -10.922 m -0.301 -3.777" fill="#fae360" stroke="none" fill-rule="nonzero" fill-opacity="1"/><path d="m 24 17 l 2 10 l 0.5 4.699 l -2.504 -10.699 m 0.004 -4" fill="#bf6f1f" stroke="none" fill-rule="nonzero" fill-opacity="1"/><path d="m 23 33 l -1.5 -1.301 l 2.5 -10.699 l 0 5 l -1.301 5.699 m 0.301 1.301" fill="#d59326" stroke="none" fill-rule="nonzero" fill-opacity="1"/><path d="m 33 17 l -3 1 l -2.699 13.699 l 2.699 1.301 l -1 -2 l 3 -12 m 1 -2" fill="#b4621f" stroke="none" fill-rule="nonzero" fill-opacity="1"/><path d="m 27.301 31.699 l -0.801 0 l -1.5 1.301 l 5 0 m -2.699 -1.301" fill="#a64d1a" stroke="none" fill-rule="nonzero" fill-opacity="1"/><path d="m 26.5 31.699 l -0.5 -4.699 l 2 -8 l -1 -2 l 3 1 l -2.699 13.699 m -0.801 0" fill="#f3cf45" stroke="none" fill-rule="nonzero" fill-opacity="1"/><path d="m 25 33 l 1.5 -1.301 l -2.5 -10.699 l 0 5 l 1.301 5.699 m -0.301 1.301" fill="#f8d24b" stroke="none" fill-rule="nonzero" fill-opacity="1"/><path d="m 18 18 l 3 -1 l -6 0 m 3 1" fill="#fffbce" stroke="none" fill-rule="nonzero" fill-opacity="1"/><path d="m 30 18 l -3 -1 l 6 0 m -3 1" fill="#fcefa2" stroke="none" fill-rule="nonzero" fill-opacity="1"/></g></g></g><g><path d="m 40.03 7.531 c 3.712 4.084 5.969 9.514 5.969 15.469 0 12.703 -10.297 23 -23 23 c -5.954 0 -11.384 -2.256 -15.469 -5.969 4.178 4.291 10.01 6.969 16.469 6.969 c 12.703 0 23 -10.298 23 -23 0 -6.462 -2.677 -12.291 -6.969 -16.469 z" opacity="0.1"/></g></svg>

<svg xmlns="http://www.w3.org/2000/svg" viewBox="0 0 48 48">
 <defs>
  <linearGradient id="linearGradient3764" y1="47" x2="0" y2="1" gradientUnits="userSpaceOnUse">
   <stop style="stop-color:#d6971e;stop-opacity:1"/>
   <stop offset="1" style="stop-color:#e1a126;stop-opacity:1"/>
  </linearGradient>
  <clipPath id="clipPath-811116545">
   <g transform="translate(0,-1004.3622)">
    <path d="m -24 13 c 0 1.105 -0.672 2 -1.5 2 -0.828 0 -1.5 -0.895 -1.5 -2 0 -1.105 0.672 -2 1.5 -2 0.828 0 1.5 0.895 1.5 2 z" transform="matrix(15.333333,0,0,11.5,414.99999,878.8622)" style="fill:#1890d0"/>
   </g>
  </clipPath>
  <clipPath id="clipPath-830670451">
   <g transform="translate(0,-1004.3622)">
    <path d="m -24 13 c 0 1.105 -0.672 2 -1.5 2 -0.828 0 -1.5 -0.895 -1.5 -2 0 -1.105 0.672 -2 1.5 -2 0.828 0 1.5 0.895 1.5 2 z" transform="matrix(15.333333,0,0,11.5,414.99999,878.8622)" style="fill:#1890d0"/>
   </g>
  </clipPath>
 </defs>
 <g>
  <path d="m 36.31 5 c 5.859 4.062 9.688 10.831 9.688 18.5 c 0 12.426 -10.07 22.5 -22.5 22.5 c -7.669 0 -14.438 -3.828 -18.5 -9.688 c 1.037 1.822 2.306 3.499 3.781 4.969 c 4.085 3.712 9.514 5.969 15.469 5.969 c 12.703 0 23 -10.298 23 -23 c 0 -5.954 -2.256 -11.384 -5.969 -15.469 c -1.469 -1.475 -3.147 -2.744 -4.969 -3.781 z m 4.969 3.781 c 3.854 4.113 6.219 9.637 6.219 15.719 c 0 12.703 -10.297 23 -23 23 c -6.081 0 -11.606 -2.364 -15.719 -6.219 c 4.16 4.144 9.883 6.719 16.219 6.719 c 12.703 0 23 -10.298 23 -23 c 0 -6.335 -2.575 -12.06 -6.719 -16.219 z" style="opacity:0.05"/>
  <path d="m 41.28 8.781 c 3.712 4.085 5.969 9.514 5.969 15.469 c 0 12.703 -10.297 23 -23 23 c -5.954 0 -11.384 -2.256 -15.469 -5.969 c 4.113 3.854 9.637 6.219 15.719 6.219 c 12.703 0 23 -10.298 23 -23 c 0 -6.081 -2.364 -11.606 -6.219 -15.719 z" style="opacity:0.1"/>
  <path d="m 31.25 2.375 c 8.615 3.154 14.75 11.417 14.75 21.13 c 0 12.426 -10.07 22.5 -22.5 22.5 c -9.708 0 -17.971 -6.135 -21.12 -14.75 a 23 23 0 0 0 44.875 -7 a 23 23 0 0 0 -16 -21.875 z" style="opacity:0.2"/>
 </g>
 <g>
  <path d="m 24 1 c 12.703 0 23 10.297 23 23 c 0 12.703 -10.297 23 -23 23 -12.703 0 -23 -10.297 -23 -23 0 -12.703 10.297 -23 23 -23 z" style="fill:url(#linearGradient3764);fill-opacity:1"/>
 </g>
 <g>
  <g style="clip-path:url(#clipPath-811116545)">
   <g transform="translate(1,1)">
    <g style="opacity:0.1">
     <!-- color: #e1a126 -->
     <g>
      <path d="m 1 1 c 0 0 6.7 6.596 13.496 13.299 c -2.773 2.722 -4.496 6.508 -4.496 10.701 c 0 4.163 1.697 7.929 4.436 10.646 c -6.069 6.03 -13.436 13.354 -13.436 13.354 l 48 0 l 0.004 0 c 0 0 -9.04 -9.02 -13.41 -13.381 c 2.722 -2.715 4.406 -6.47 4.406 -10.619 c 0 -4.108 -1.654 -7.826 -4.328 -10.535 c 11.823 -11.849 13.324 -13.465 13.324 -13.465 l -47.996 0 z" transform="translate(-1,-1)" style="fill:#000;fill-opacity:1;stroke:none;fill-rule:nonzero"/>
      <path d="m 30 18 l -3 -1 l 6 0 m -3 1" style="fill:#000;fill-opacity:1;stroke:none;fill-rule:nonzero"/>
     </g>
    </g>
   </g>
  </g>
 </g>
 <g>
  <g style="clip-path:url(#clipPath-830670451)">
   <!-- color: #e1a126 -->
   <g>
    <path d="M 48,48 0,48 C 0,48 18.551,29.582 24.05,24.098 46.323,46.328 48.003,48 48.003,48 m 0,0" style="fill:#e8c55b;fill-opacity:1;stroke:none;fill-rule:nonzero"/>
    <path d="M 48,0 0,0 C 0,0 18.738,18.426 24.23,23.91 46.503,1.68 47.996,0 47.996,0 m 0,0" style="fill:#fffaa3;fill-opacity:1;stroke:none;fill-rule:nonzero"/>
    <path d="M 39,24 C 39,32.285 32.285,39 24,39 15.715,39 9,32.285 9,24 9,15.715 15.715,9 24,9 c 8.285,0 15,6.715 15,15 m 0,0" style="fill:#d5a426;fill-opacity:1;stroke:none;fill-rule:nonzero"/>
    <path d="m 36.496 23.977 c 0 6.875 -5.574 12.445 -12.449 12.445 -6.871 0 -12.445 -5.57 -12.445 -12.445 0 -6.875 5.574 -12.445 12.445 -12.445 6.875 0 12.449 5.57 12.449 12.445 m 0 0" style="fill:#2d2d2d;fill-opacity:1;stroke:none;fill-rule:nonzero"/>
    <path d="m 16,18 c -2,-2 8.672,-0.242 2,0 L 19.605,31.508 18,33 c 1.656,-0.004 3.34,0.031 5,0 -0.449,-1.078 -0.902,-1.434 -1,-2 l 2,-5 1.352,5.66 -0.188,1.215 C 26.977,32.863 28.441,33.008 30,33 29.605,32.602 29.211,31.902 28.867,31.445 L 31.238,18.586 32,17 28,17 c 0.41,0.145 0.699,0.699 1,1 L 26,29 C 24.918,24.621 23.953,18.012 24,17 L 21.812,27.871 19.73,18.687 C 19.542,17.941 21,15.999 20,17.999 m -4,0" style="fill:#d5a426;fill-opacity:1;stroke:none;fill-rule:nonzero"/>
    <path d="m 15,17 3,1 2.75,13.727 L 18,33 19,31 16,19 m -1,-2" style="fill:#f9df5b;fill-opacity:1;stroke:none;fill-rule:nonzero"/>
    <path d="m 20.699,31.699 0.801,0 L 23,33 18,33 m 2.699,-1.301" style="fill:#a54c1b;fill-opacity:1;stroke:none;fill-rule:nonzero"/>
    <path d="M 21.5,31.699 22,27 l -2,-8 1,-2 -3,1 2.699,13.699 m 0.801,0" style="fill:#d59326;fill-opacity:1;stroke:none;fill-rule:nonzero"/>
    <path d="m 24,17 -2,10 -0.5,4.699 2.801,-10.922 M 24,17" style="fill:#fae360;fill-opacity:1;stroke:none;fill-rule:nonzero"/>
    <path d="m 24,17 2,10 0.5,4.699 L 23.996,21 M 24,17" style="fill:#bf6f1f;fill-opacity:1;stroke:none;fill-rule:nonzero"/>
    <path d="M 23,33 21.5,31.699 24,21 l 0,5 -1.301,5.699 M 23,33" style="fill:#d59326;fill-opacity:1;stroke:none;fill-rule:nonzero"/>
    <path d="M 33,17 30,18 27.301,31.699 30,33 29,31 32,19 m 1,-2" style="fill:#b4621f;fill-opacity:1;stroke:none;fill-rule:nonzero"/>
    <path d="m 27.301,31.699 -0.801,0 L 25,33 l 5,0 m -2.699,-1.301" style="fill:#a64d1a;fill-opacity:1;stroke:none;fill-rule:nonzero"/>
    <path d="M 26.5,31.699 26,27 l 2,-8 -1,-2 3,1 -2.699,13.699 m -0.801,0" style="fill:#f3cf45;fill-opacity:1;stroke:none;fill-rule:nonzero"/>
    <path d="M 25,33 26.5,31.699 24,21 l 0,5 1.301,5.699 M 25,33" style="fill:#f8d24b;fill-opacity:1;stroke:none;fill-rule:nonzero"/>
    <path d="m 18 18 3 -1 -6 0 m 3 1" style="fill:#fffbce;fill-opacity:1;stroke:none;fill-rule:nonzero"/>
    <path d="m 30 18 -3 -1 6 0 m -3 1" style="fill:#fcefa2;fill-opacity:1;stroke:none;fill-rule:nonzero"/>
   </g>
  </g>
 </g>
 <g>
  <path d="m 40.03 7.531 c 3.712 4.084 5.969 9.514 5.969 15.469 0 12.703 -10.297 23 -23 23 c -5.954 0 -11.384 -2.256 -15.469 -5.969 4.178 4.291 10.01 6.969 16.469 6.969 c 12.703 0 23 -10.298 23 -23 0 -6.462 -2.677 -12.291 -6.969 -16.469 z" style="opacity:0.1"/>
 </g>
</svg>
